X: 37292
T: Skogsbäcken
R: waltz
M: 3/4
K: Cmajor
K: Eb
E/D/E/F/ GG/E/ B/E/E/B/|ee/B/ G/F/E/D/ E2|E/D/E/F/ GG/E/ A/G/F/E/|D/E/F/G/ F2 B,2|
E/D/E/F/ GG/E/ B/E/E/B/|ee/B/ G/F/E/D/ E2|E/D/E/F/ GG/E/ A/G/F/E/|D/E/F/G/ F2 E2:|
|:A,/E/c/E/ A,/E/c/E/ A,/E/c/E/|G,/E/B/E/ G,/E/B/E/ G,/E/B/E/|D/B/f/B/ D/B/f/B/ D/B/f/B/|E/B/g/B/ E/B/g/B/ E/B/g/B/|
A,/E/c/E/ A,/E/c/E/ A,/E/c/E/|G,/E/B/E/ G,/E/B/E/ G,/E/B/E/|Bc/B/ AG FE|B,D/F/ E4:|
|:gf/e/ dc =BG|c_B/A/ GF E>D|C/=B,/C/D/ EE/C/ DB,|C/=B,/C/D/ E/D/E/F/ G2|
gf/e/ dc =BG|c_B/A/ GF E>D|C/=B,/C/D/ E/D/E/F/ Gc|e/d/c/=B/ d2 c2:|

